X: 7103
T: Christmas Echoes
R: reel
M: 4/4
K: Bminor
|:B,EBc FDCD|G,FDB, A,FDC|B,EBc FDCD|(3GFE DE FE {F}E2:|
FAcd efcA|GBAF ~E3 G|FAcd efcA|(3GFE DE FE {F} E2|
FAcd efcA|~B3 d cBAc|dB (3cBA BG (3AGF|1 (3GFE DE FE {F} E2:|2 (3GFE DE FE {F} EA,||

